lib/brands/icons/git.svg

<svg xmlns="http://www.w3.org/2000/svg" fill="none" aria-hidden="true" viewBox="0 0 48 48"><g id="git-Icon"><path id="Vector" fill="#EE513B" d="M47.0955 21.8625L26.1434 0.905016C25.5634 0.325517 24.777 1.90735e-06 23.9571 1.90735e-06C23.1372 1.90735e-06 22.3508 0.325517 21.7708 0.905016L17.4143 5.2583L22.9344 10.7784C25.8337 9.7991 28.5788 12.5752 27.5834 15.4585L32.9042 20.7793C36.5718 19.515 39.4593 24.1008 36.7046 26.8533C33.8664 29.6916 29.182 26.5458 30.7045 22.8525L25.7384 17.8928V30.9484C28.4491 32.292 28.1234 35.4324 26.7113 36.8413C26.0213 37.5309 25.0858 37.9182 24.1103 37.9182C23.1349 37.9182 22.1993 37.5309 21.5094 36.8413C19.6268 34.9556 20.3233 31.8152 22.7148 30.8412V17.6624C20.4861 16.7506 20.079 14.3688 20.7176 12.8409L15.2757 7.39263L0.905458 21.765C0.325697 22.3449 0 23.1313 0 23.9513C0 24.7713 0.325697 25.5577 0.905458 26.1376L21.864 47.0951C22.4439 47.6745 23.23 48 24.0498 48C24.8695 48 25.6557 47.6745 26.2355 47.0951L47.0955 26.2351C47.6753 25.6552 48.001 24.8688 48.001 24.0488C48.001 23.2288 47.6753 22.4424 47.0955 21.8625V21.8625Z"/></g></svg>

<svg xmlns="http://www.w3.org/2000/svg" fill="none" aria-hidden="true" viewBox="0 0 48 48"><path fill="#EE513B" d="M47.096 21.863 26.143.905a3.093 3.093 0 0 0-4.372 0l-4.357 4.353 5.52 5.52c2.9-.979 5.645 1.797 4.65 4.68l5.32 5.321c3.668-1.264 6.555 3.322 3.8 6.074-2.838 2.839-7.522-.307-6-4l-4.966-4.96v13.055c2.711 1.344 2.385 4.484.973 5.893a3.68 3.68 0 0 1-5.202 0c-1.882-1.885-1.186-5.026 1.206-6V17.662c-2.229-.911-2.636-3.293-1.997-4.821l-5.442-5.448L.906 21.765a3.092 3.092 0 0 0 0 4.373l20.958 20.957a3.092 3.092 0 0 0 4.371 0l20.86-20.86a3.092 3.092 0 0 0 0-4.372Z"/></svg>
